svgs/light/do-not-enter.svg

<svg xmlns="http://www.w3.org/2000/svg" viewBox="0 0 512 512"><!--! Font Awesome Pro 6.4.2 by @fontawesome - https://fontawesome.com License - https://fontawesome.com/license (Commercial License) Copyright 2023 Fonticons, Inc. --><path d="M480 256A224 224 0 1 0 32 256a224 224 0 1 0 448 0zM0 256a256 256 0 1 1 512 0A256 256 0 1 1 0 256zm112-16v32c0 4.4 3.6 8 8 8H392c4.4 0 8-3.6 8-8V240c0-4.4-3.6-8-8-8H120c-4.4 0-8 3.6-8 8zm-32 0c0-22.1 17.9-40 40-40H392c22.1 0 40 17.9 40 40v32c0 22.1-17.9 40-40 40H120c-22.1 0-40-17.9-40-40V240z"/></svg>

<svg xmlns="http://www.w3.org/2000/svg" viewBox="0 0 512 512"><!--! Font Awesome Pro 6.1.1 by @fontawesome - https://fontawesome.com License - https://fontawesome.com/license (Commercial License) Copyright 2022 Fonticons, Inc. --><path d="M80 240C80 217.9 97.91 200 120 200H392C414.1 200 432 217.9 432 240V272C432 294.1 414.1 312 392 312H120C97.91 312 80 294.1 80 272V240zM112 272C112 276.4 115.6 280 120 280H392C396.4 280 400 276.4 400 272V240C400 235.6 396.4 232 392 232H120C115.6 232 112 235.6 112 240V272zM512 256C512 397.4 397.4 512 256 512C114.6 512 0 397.4 0 256C0 114.6 114.6 0 256 0C397.4 0 512 114.6 512 256zM256 32C132.3 32 32 132.3 32 256C32 379.7 132.3 480 256 480C379.7 480 480 379.7 480 256C480 132.3 379.7 32 256 32z"/></svg>
